projects/06-display-characterization/data/disp_model_test.ti1
CTI1

COLOR_REP "RGB"

NUMBER_OF_FIELDS 4
BEGIN_DATA_FORMAT
SAMPLE_ID RGB_R RGB_G RGB_B
END_DATA_FORMAT

NUMBER_OF_SETS 30
BEGIN_DATA
1	42	29	24
2	74	56	47
3	35	45	59
4	31	39	25
5	48	47	66
6	36	73	65
7	83	46	19
8	27	33	61
9	75	31	36
10	33	22	37
11	57	71	24
12	88	61	18
13	20	23	55
14	24	55	26
15	68	19	24
16	91	76	17
17	72	31	55
18	0	48	62
19	93	94	93
20	75	76	76
21	60	60	61
22	44	44	45
23	30	31	31
24	18	19	19
25	0	0	0
26	0	0	0
27	0	0	0
28	100	100	100
29	100	100	100
30	100	100	100
END_DATA
