projects/06-display-characterization/data/disp_model_test.ti3
CTI3   

DESCRIPTOR "Argyll Calibration Target chart information 3"
ORIGINATOR "Argyll dispread"
CREATED "Tue Nov 19 14:23:59 2024"
DEVICE_CLASS "DISPLAY"
COLOR_REP "RGB_XYZ"
TARGET_INSTRUMENT "X-Rite ColorMunki"
DISPLAY_TYPE_REFRESH "YES"
INSTRUMENT_TYPE_SPECTRAL "YES"
LUMINANCE_XYZ_CDM2 "293.025125 304.643666 352.924207"
NORMALIZED_TO_Y_100 "YES"

NUMBER_OF_FIELDS 7
BEGIN_DATA_FORMAT
SAMPLE_ID RGB_R RGB_G RGB_B XYZ_X XYZ_Y XYZ_Z 
END_DATA_FORMAT

NUMBER_OF_SETS 30
BEGIN_DATA
1 42.00000 29.00000 24.00000 10.89952 9.469929 6.185825 
2 74.00000 56.00000 47.00000 38.20927 35.08403 25.94776 
3 35.00000 45.00000 59.00000 17.60317 18.25637 35.63590 
4 31.00000 39.00000 25.00000 9.704904 12.21315 7.254313 
5 48.00000 47.00000 66.00000 24.54122 22.63736 45.11360 
6 36.00000 73.00000 65.00000 30.96561 42.56154 47.26803 
7 83.00000 46.00000 19.00000 37.13711 29.53789 6.425172 
8 27.00000 33.00000 61.00000 12.70687 10.82347 37.16018 
9 75.00000 31.00000 36.00000 29.53220 19.54882 14.37258 
10 33.00000 22.00000 37.00000 8.145330 6.014328 13.48173 
11 57.00000 71.00000 24.00000 31.78812 42.40709 11.21152 
12 88.00000 61.00000 18.00000 45.93636 42.26304 8.037712 
13 20.00000 23.00000 55.00000 8.171971 5.849769 29.17389 
14 24.00000 55.00000 26.00000 13.01141 21.44823 9.212526 
15 68.00000 19.00000 24.00000 21.49479 12.54062 6.057446 
16 91.00000 76.00000 17.00000 55.83699 58.74849 10.25228 
17 72.00000 31.00000 55.00000 30.55224 19.64214 30.64576 
18 0.00000 48.00000 62.00000 13.92742 17.46976 39.00106 
19 93.00000 94.00000 93.00000 81.98552 86.11017 96.10788 
20 75.00000 76.00000 76.00000 55.06763 57.53483 65.46720 
21 60.00000 60.00000 61.00000 33.50376 34.45652 40.47269 
22 44.00000 44.00000 45.00000 17.85899 18.26274 21.83612 
23 30.00000 31.00000 31.00000 8.254440 8.582991 10.00713 
24 18.00000 19.00000 19.00000 2.771329 2.901585 3.430581 
25 0.00000 0.00000 0.00000 0.0790555 0.0773751 0.151234 
26 0.00000 0.00000 0.00000 0.0786865 0.0771027 0.152473 
27 0.00000 0.00000 0.00000 0.0781046 0.0766146 0.151655 
28 100.0000 100.0000 100.0000 96.18619 100.0000 115.8482 
29 100.0000 100.0000 100.0000 96.19147 100.0041 115.8621 
30 100.0000 100.0000 100.0000 96.19546 100.0039 115.8788 
END_DATA
