projects/06-display-characterization/data/ramps_plus.ti3
CTI3   

DESCRIPTOR "Argyll Calibration Target chart information 3"
ORIGINATOR "Argyll dispread"
CREATED "Thu Nov  7 11:44:30 2024"
DEVICE_CLASS "DISPLAY"
SINGLE_DIM_STEPS "11"
COMP_GREY_STEPS "11"
COLOR_REP "RGB_XYZ"
TARGET_INSTRUMENT "X-Rite ColorMunki"
DISPLAY_TYPE_REFRESH "YES"
INSTRUMENT_TYPE_SPECTRAL "YES"
LUMINANCE_XYZ_CDM2 "292.717282 302.237266 360.490405"
NORMALIZED_TO_Y_100 "YES"

NUMBER_OF_FIELDS 7
BEGIN_DATA_FORMAT
SAMPLE_ID RGB_R RGB_G RGB_B XYZ_X XYZ_Y XYZ_Z 
END_DATA_FORMAT

NUMBER_OF_SETS 47
BEGIN_DATA
1 100.0000 100.0000 100.0000 96.85016 100.0000 119.2740 
2 0.00000 20.00000 0.00000 1.231990 2.377456 0.505453 
3 20.00000 20.00000 20.00000 3.339129 3.404660 4.066683 
4 0.00000 0.00000 0.00000 0.0818441 0.0804222 0.152205 
5 0.00000 0.00000 90.00000 14.99313 5.788238 84.66423 
6 0.00000 0.00000 100.0000 19.04699 7.274436 107.6106 
7 0.00000 0.00000 0.00000 0.0848275 0.0835364 0.158104 
8 0.00000 0.00000 10.00000 0.218506 0.133804 0.922781 
9 10.00000 10.00000 10.00000 0.816572 0.833636 1.023483 
10 20.00000 0.00000 0.00000 1.530898 0.821133 0.206438 
11 30.00000 0.00000 0.00000 3.668003 1.916727 0.289660 
12 40.00000 0.00000 0.00000 6.643928 3.441072 0.402147 
13 10.00000 0.00000 0.00000 0.410179 0.248674 0.169214 
14 50.00000 0.00000 0.00000 10.54738 5.439871 0.551483 
15 60.00000 0.00000 0.00000 15.09681 7.767678 0.710330 
16 70.00000 0.00000 0.00000 20.98460 10.78328 0.942454 
17 80.00000 0.00000 0.00000 27.55269 14.14617 1.169395 
18 100.0000 0.00000 0.00000 43.37156 22.27378 1.830376 
19 90.00000 0.00000 0.00000 35.22155 18.07656 1.468145 
20 100.0000 100.0000 100.0000 97.27038 100.5018 119.0130 
21 0.00000 30.00000 0.00000 2.908149 5.723878 1.017555 
22 0.00000 40.00000 0.00000 5.267450 10.44038 1.735398 
23 0.00000 50.00000 0.00000 8.423390 16.74394 2.703212 
24 0.00000 60.00000 0.00000 12.12124 24.13206 3.827380 
25 0.00000 70.00000 0.00000 16.98406 33.83330 5.330556 
26 0.00000 80.00000 0.00000 22.45782 44.77578 6.993808 
27 0.00000 90.00000 0.00000 28.96707 57.78103 9.017666 
28 0.00000 0.00000 50.00000 4.445607 1.754055 24.90011 
29 0.00000 0.00000 20.00000 0.687512 0.315331 3.569630 
30 0.00000 0.00000 40.00000 2.814558 1.131302 15.63720 
31 0.00000 0.00000 60.00000 6.323397 2.480547 35.51762 
32 0.00000 0.00000 0.00000 0.0842288 0.0821036 0.162483 
33 100.0000 100.0000 100.0000 96.55531 99.77197 118.0946 
34 0.00000 10.00000 0.00000 0.343865 0.599490 0.241339 
35 0.00000 0.00000 0.00000 0.0846427 0.0826911 0.161503 
36 0.00000 100.0000 0.00000 35.78446 71.51206 11.26718 
37 100.0000 100.0000 100.0000 96.50609 99.72494 118.0244 
38 0.00000 0.00000 70.00000 8.744407 3.408381 49.26320 
39 0.00000 0.00000 80.00000 11.49403 4.465478 64.85078 
40 0.00000 0.00000 30.00000 1.565856 0.650841 8.568056 
41 30.00000 30.00000 30.00000 8.116826 8.276664 9.780544 
42 40.00000 40.00000 40.00000 14.82305 15.13581 17.80540 
43 50.00000 50.00000 50.00000 23.58524 24.14480 28.26191 
44 60.00000 60.00000 60.00000 33.78343 34.66978 40.39749 
45 70.00000 70.00000 70.00000 46.94437 48.30742 56.03071 
46 80.00000 80.00000 80.00000 61.57263 63.50938 73.48548 
47 90.00000 90.00000 90.00000 78.61274 81.24596 94.15693 
END_DATA
