projects/02-color-measurement/data/colormunki_data/matched/3.1_matching.sp
SPECT  

DESCRIPTOR "Argyll Spectral power/reflectance information"
ORIGINATOR "Argyll CMS"
CREATED "Tue Sep 17 20:40:25 2024"
MEAS_TYPE "TRANSMISSIVE"
SPECTRAL_BANDS "36"
SPECTRAL_START_NM "380.000000"
SPECTRAL_END_NM "730.000000"
SPECTRAL_NORM "100.000000"

NUMBER_OF_FIELDS 36
BEGIN_DATA_FORMAT
SPEC_380 SPEC_390 SPEC_400 SPEC_410 SPEC_420 SPEC_430 SPEC_440 SPEC_450 SPEC_460 SPEC_470 SPEC_480 SPEC_490 SPEC_500 SPEC_510 SPEC_520 SPEC_530 SPEC_540 SPEC_550 SPEC_560 SPEC_570 SPEC_580 SPEC_590 SPEC_600 SPEC_610 SPEC_620 SPEC_630 SPEC_640 SPEC_650 SPEC_660 SPEC_670 SPEC_680 SPEC_690 SPEC_700 SPEC_710 SPEC_720 SPEC_730 
END_DATA_FORMAT

NUMBER_OF_SETS 1
BEGIN_DATA
11.05993 8.177021 4.999324 23.88706 65.17993 67.81291 68.23930 67.65571 68.87078 70.69574 75.01918 78.40771 80.35100 82.33028 83.85191 85.28798 85.71692 85.89541 86.02053 86.13086 88.40984 91.60179 93.64032 94.81385 95.43285 97.65326 96.58479 97.38274 96.18713 94.86155 94.42355 93.28966 91.93699 89.26064 88.58249 88.13648 
END_DATA
