projects/02-color-measurement/data/colormunki_data/matched/3.2_matching.sp
SPECT  

DESCRIPTOR "Argyll Spectral power/reflectance information"
ORIGINATOR "Argyll CMS"
CREATED "Tue Sep 17 20:40:45 2024"
MEAS_TYPE "TRANSMISSIVE"
SPECTRAL_BANDS "36"
SPECTRAL_START_NM "380.000000"
SPECTRAL_END_NM "730.000000"
SPECTRAL_NORM "100.000000"

NUMBER_OF_FIELDS 36
BEGIN_DATA_FORMAT
SPEC_380 SPEC_390 SPEC_400 SPEC_410 SPEC_420 SPEC_430 SPEC_440 SPEC_450 SPEC_460 SPEC_470 SPEC_480 SPEC_490 SPEC_500 SPEC_510 SPEC_520 SPEC_530 SPEC_540 SPEC_550 SPEC_560 SPEC_570 SPEC_580 SPEC_590 SPEC_600 SPEC_610 SPEC_620 SPEC_630 SPEC_640 SPEC_650 SPEC_660 SPEC_670 SPEC_680 SPEC_690 SPEC_700 SPEC_710 SPEC_720 SPEC_730 
END_DATA_FORMAT

NUMBER_OF_SETS 1
BEGIN_DATA
7.323487 6.068730 4.686157 18.41634 22.31685 23.73580 24.08984 23.47617 23.96553 25.62907 29.34890 32.49694 34.59204 36.65071 37.86920 39.48905 39.71977 39.26911 39.96223 40.56984 43.38470 48.43438 51.74504 54.45555 55.64113 57.52135 57.94885 56.91396 56.19133 54.86383 54.74713 53.34404 50.48061 47.17484 46.92154 46.13416 
END_DATA
