projects/07-color-reproduction/data/workflow_test_uncal.ti3
CTI3   

DESCRIPTOR "Argyll Calibration Target chart information 3"
ORIGINATOR "Argyll dispread"
CREATED "Mon Dec  2 13:22:53 2024"
DEVICE_CLASS "DISPLAY"
COLOR_REP "RGB_XYZ"
TARGET_INSTRUMENT "X-Rite ColorMunki"
DISPLAY_TYPE_REFRESH "YES"
INSTRUMENT_TYPE_SPECTRAL "YES"
LUMINANCE_XYZ_CDM2 "290.409591 299.978870 353.118986"
NORMALIZED_TO_Y_100 "YES"

NUMBER_OF_FIELDS 7
BEGIN_DATA_FORMAT
SAMPLE_ID RGB_R RGB_G RGB_B XYZ_X XYZ_Y XYZ_Z 
END_DATA_FORMAT

NUMBER_OF_SETS 30
BEGIN_DATA
1 35.00000 21.00000 15.00000 6.632347 5.332687 2.530747 
2 84.00000 62.00000 54.00000 48.28230 43.38750 34.25094 
3 31.00000 40.00000 58.00000 14.96165 14.70981 34.81038 
4 24.00000 33.00000 16.00000 6.011969 8.172227 3.434997 
5 47.00000 45.00000 67.00000 23.86907 21.24530 46.92794 
6 42.00000 76.00000 70.00000 36.18218 47.28323 55.59495 
7 89.00000 49.00000 21.00000 42.92518 33.92898 7.931802 
8 13.00000 21.00000 57.00000 7.490972 5.108471 31.89365 
9 80.00000 31.00000 35.00000 32.51703 21.01255 13.88254 
10 20.00000 9.000000 26.00000 2.785835 1.645589 6.127844 
11 67.00000 80.00000 30.00000 42.77948 54.78712 16.44346 
12 93.00000 69.00000 29.00000 54.83300 52.19662 14.60637 
13 1.000000 1.000000 40.00000 2.771848 1.133503 15.24621 
14 21.00000 49.00000 22.00000 10.36853 16.97861 6.842347 
15 64.00000 9.000000 13.00000 17.48478 9.303257 2.136094 
16 98.00000 87.00000 32.00000 69.98849 75.41778 20.24017 
17 71.00000 25.00000 51.00000 27.75920 16.50952 26.90920 
18 1.000000 39.00000 57.00000 10.46018 11.89553 32.88089 
19 92.00000 91.00000 90.00000 80.22944 82.60669 93.35376 
20 77.00000 77.00000 76.00000 56.17776 58.01365 65.67851 
21 54.00000 54.00000 54.00000 27.06688 27.72270 32.19874 
22 34.00000 35.00000 34.00000 10.68241 11.07354 12.60490 
23 15.00000 17.00000 17.00000 2.067770 2.236017 2.777050 
24 2.000000 2.000000 3.000000 0.122257 0.120383 0.219864 
25 0.00000 0.00000 0.00000 0.0894228 0.0897326 0.160165 
26 0.00000 0.00000 0.00000 0.0802138 0.0788745 0.152223 
27 0.00000 0.00000 0.00000 0.0786578 0.0770279 0.151740 
28 100.0000 100.0000 100.0000 96.81002 100.0000 117.7146 
29 100.0000 100.0000 100.0000 96.84364 100.0282 117.7557 
30 100.0000 100.0000 100.0000 96.83302 100.0270 117.7428 
END_DATA
