projects/07-color-reproduction/data/workflow_test_uncal.ti1
CTI1

COLOR_REP "RGB"

NUMBER_OF_FIELDS 4
BEGIN_DATA_FORMAT
SAMPLE_ID RGB_R RGB_G RGB_B
END_DATA_FORMAT

NUMBER_OF_SETS 30
BEGIN_DATA
1	35	21	15
2	84	62	54
3	31	40	58
4	24	33	16
5	47	45	67
6	42	76	70
7	89	49	21
8	13	21	57
9	80	31	35
10	20	9	26
11	67	80	30
12	93	69	29
13	1	1	40
14	21	49	22
15	64	9	13
16	98	87	32
17	71	25	51
18	1	39	57
19	92	91	90
20	77	77	76
21	54	54	54
22	34	35	34
23	15	17	17
24	2	2	3
25	0	0	0
26	0	0	0
27	0	0	0
28	100	100	100
29	100	100	100
30	100	100	100
END_DATA
