projects/07-color-reproduction/data/workflow_test_cal.ti1
CTI1

COLOR_REP "RGB"

NUMBER_OF_FIELDS 4
BEGIN_DATA_FORMAT
SAMPLE_ID RGB_R RGB_G RGB_B
END_DATA_FORMAT

NUMBER_OF_SETS 30
BEGIN_DATA
1	45	34	29
2	78	59	52
3	40	47	61
4	34	42	27
5	51	47	67
6	38	73	67
7	84	44	9
8	30	35	62
9	76	32	37
10	37	25	41
11	58	71	22
12	87	62	18
13	17	17	53
14	22	52	28
15	67	15	24
16	93	76	17
17	68	29	54
18	0	48	60
19	93	94	93
20	73	75	75
21	53	55	55
22	42	44	43
23	30	33	32
24	13	15	9
25	0	0	0
26	0	0	0
27	0	0	0
28	100	100	100
29	100	100	100
30	100	100	100
END_DATA
