projects/07-color-reproduction/data/workflow_test_cal.ti3
CTI3   

DESCRIPTOR "Argyll Calibration Target chart information 3"
ORIGINATOR "Argyll dispread"
CREATED "Mon Dec  2 13:25:23 2024"
DEVICE_CLASS "DISPLAY"
COLOR_REP "RGB_XYZ"
TARGET_INSTRUMENT "X-Rite ColorMunki"
DISPLAY_TYPE_REFRESH "YES"
INSTRUMENT_TYPE_SPECTRAL "YES"
LUMINANCE_XYZ_CDM2 "295.876065 306.162857 360.003152"
NORMALIZED_TO_Y_100 "YES"

NUMBER_OF_FIELDS 7
BEGIN_DATA_FORMAT
SAMPLE_ID RGB_R RGB_G RGB_B XYZ_X XYZ_Y XYZ_Z 
END_DATA_FORMAT

NUMBER_OF_SETS 30
BEGIN_DATA
1 45.00000 34.00000 29.00000 13.67103 12.48023 9.458075 
2 78.00000 59.00000 52.00000 42.53314 38.66157 31.70388 
3 40.00000 47.00000 61.00000 20.55197 20.66766 39.35867 
4 34.00000 42.00000 27.00000 11.72746 14.47209 8.734164 
5 51.00000 47.00000 67.00000 26.06765 23.32474 47.13393 
6 38.00000 73.00000 67.00000 32.20092 42.73871 50.36962 
7 84.00000 44.00000 9.000000 36.45879 28.25005 3.869133 
8 30.00000 35.00000 62.00000 14.27393 12.36172 38.99095 
9 76.00000 32.00000 37.00000 30.01785 20.06690 15.17810 
10 37.00000 25.00000 41.00000 10.36724 7.743928 17.34490 
11 58.00000 71.00000 22.00000 31.98883 41.91535 10.25812 
12 87.00000 62.00000 18.00000 45.77848 42.69965 8.214699 
13 17.00000 17.00000 53.00000 6.700865 4.052663 27.58699 
14 22.00000 52.00000 28.00000 12.08650 19.41238 10.08939 
15 67.00000 15.00000 24.00000 20.26292 11.26302 6.043822 
16 93.00000 76.00000 17.00000 57.49651 59.50643 10.27921 
17 68.00000 29.00000 54.00000 27.18815 17.30422 30.51217 
18 0.00000 48.00000 60.00000 13.82828 17.55479 37.55350 
19 93.00000 94.00000 93.00000 83.76668 87.52501 99.49180 
20 73.00000 75.00000 75.00000 52.30974 54.65987 63.67629 
21 53.00000 55.00000 55.00000 27.09465 28.25298 33.29002 
22 42.00000 44.00000 43.00000 17.02342 17.85616 20.62821 
23 30.00000 33.00000 32.00000 8.913491 9.557893 11.15015 
24 13.00000 15.00000 9.000000 1.341684 1.613737 0.940049 
25 0.00000 0.00000 0.00000 0.0798641 0.0790999 0.149148 
26 0.00000 0.00000 0.00000 0.0791573 0.0781266 0.149686 
27 0.00000 0.00000 0.00000 0.0792779 0.0782652 0.149736 
28 100.0000 100.0000 100.0000 96.64009 100.0000 117.5855 
29 100.0000 100.0000 100.0000 96.65906 100.0199 117.6280 
30 100.0000 100.0000 100.0000 96.66667 100.0278 117.6393 
END_DATA
