projects/02-color-measurement/data/colormunki_data/imaged/3.1_imaged.sp
SPECT  

DESCRIPTOR "Argyll Spectral power/reflectance information"
ORIGINATOR "Argyll CMS"
CREATED "Tue Sep 17 20:16:07 2024"
MEAS_TYPE "TRANSMISSIVE"
SPECTRAL_BANDS "36"
SPECTRAL_START_NM "380.000000"
SPECTRAL_END_NM "730.000000"
SPECTRAL_NORM "100.000000"

NUMBER_OF_FIELDS 36
BEGIN_DATA_FORMAT
SPEC_380 SPEC_390 SPEC_400 SPEC_410 SPEC_420 SPEC_430 SPEC_440 SPEC_450 SPEC_460 SPEC_470 SPEC_480 SPEC_490 SPEC_500 SPEC_510 SPEC_520 SPEC_530 SPEC_540 SPEC_550 SPEC_560 SPEC_570 SPEC_580 SPEC_590 SPEC_600 SPEC_610 SPEC_620 SPEC_630 SPEC_640 SPEC_650 SPEC_660 SPEC_670 SPEC_680 SPEC_690 SPEC_700 SPEC_710 SPEC_720 SPEC_730 
END_DATA_FORMAT

NUMBER_OF_SETS 1
BEGIN_DATA
16.22809 14.80916 13.24493 22.41454 34.35389 33.89452 33.69566 33.88434 34.05720 34.34056 36.23031 37.62115 38.54494 39.49827 40.63859 40.91843 41.25532 41.82572 41.53013 41.64209 44.30498 47.09452 49.23220 51.88750 52.59859 53.38068 51.92176 52.84334 52.34265 52.22893 50.30166 51.21890 49.51621 47.54683 47.43468 45.48009 
END_DATA
