projects/02-color-measurement/data/colormunki_data/imaged/3.2_imaged.sp
SPECT  

DESCRIPTOR "Argyll Spectral power/reflectance information"
ORIGINATOR "Argyll CMS"
CREATED "Tue Sep 17 20:16:41 2024"
MEAS_TYPE "TRANSMISSIVE"
SPECTRAL_BANDS "36"
SPECTRAL_START_NM "380.000000"
SPECTRAL_END_NM "730.000000"
SPECTRAL_NORM "100.000000"

NUMBER_OF_FIELDS 36
BEGIN_DATA_FORMAT
SPEC_380 SPEC_390 SPEC_400 SPEC_410 SPEC_420 SPEC_430 SPEC_440 SPEC_450 SPEC_460 SPEC_470 SPEC_480 SPEC_490 SPEC_500 SPEC_510 SPEC_520 SPEC_530 SPEC_540 SPEC_550 SPEC_560 SPEC_570 SPEC_580 SPEC_590 SPEC_600 SPEC_610 SPEC_620 SPEC_630 SPEC_640 SPEC_650 SPEC_660 SPEC_670 SPEC_680 SPEC_690 SPEC_700 SPEC_710 SPEC_720 SPEC_730 
END_DATA_FORMAT

NUMBER_OF_SETS 1
BEGIN_DATA
22.95132 20.68080 18.17936 40.39682 57.82866 59.33772 59.67184 59.59085 60.47526 60.79252 61.43196 61.83859 62.18333 62.68483 63.58237 64.05460 64.17983 64.26505 64.27946 64.21787 65.33258 67.00850 68.11178 69.79528 70.43803 70.23327 69.89607 69.07193 69.15645 69.02936 67.78953 67.98136 66.62022 64.56532 64.39698 64.50491 
END_DATA
