projects/02-color-measurement/data/colormunki_data/real/3.1_real.sp
SPECT  

DESCRIPTOR "Argyll Spectral power/reflectance information"
ORIGINATOR "Argyll CMS"
CREATED "Tue Sep 17 20:05:17 2024"
MEAS_TYPE "REFLECTIVE"
MEAS_CONDITIONS "CUSTOM"
SPECTRAL_BANDS "36"
SPECTRAL_START_NM "380.000000"
SPECTRAL_END_NM "730.000000"
SPECTRAL_NORM "100.000000"

NUMBER_OF_FIELDS 36
BEGIN_DATA_FORMAT
SPEC_380 SPEC_390 SPEC_400 SPEC_410 SPEC_420 SPEC_430 SPEC_440 SPEC_450 SPEC_460 SPEC_470 SPEC_480 SPEC_490 SPEC_500 SPEC_510 SPEC_520 SPEC_530 SPEC_540 SPEC_550 SPEC_560 SPEC_570 SPEC_580 SPEC_590 SPEC_600 SPEC_610 SPEC_620 SPEC_630 SPEC_640 SPEC_650 SPEC_660 SPEC_670 SPEC_680 SPEC_690 SPEC_700 SPEC_710 SPEC_720 SPEC_730 
END_DATA_FORMAT

NUMBER_OF_SETS 1
BEGIN_DATA
26.73890 26.71445 26.68730 26.65727 26.62480 28.14277 29.90379 31.07310 31.52833 31.46927 31.44159 31.72695 32.58080 33.94988 35.21677 36.17021 37.38551 39.56311 42.14000 43.97938 45.57733 47.91355 48.70228 48.47013 48.10820 47.75968 47.51257 47.34760 47.20970 46.87419 46.71284 46.55746 46.42924 46.21108 45.96137 45.96384 
END_DATA
