projects/02-color-measurement/data/colormunki_data/real/3.2_real.sp
SPECT  

DESCRIPTOR "Argyll Spectral power/reflectance information"
ORIGINATOR "Argyll CMS"
CREATED "Tue Sep 17 20:06:35 2024"
MEAS_TYPE "REFLECTIVE"
MEAS_CONDITIONS "CUSTOM"
SPECTRAL_BANDS "36"
SPECTRAL_START_NM "380.000000"
SPECTRAL_END_NM "730.000000"
SPECTRAL_NORM "100.000000"

NUMBER_OF_FIELDS 36
BEGIN_DATA_FORMAT
SPEC_380 SPEC_390 SPEC_400 SPEC_410 SPEC_420 SPEC_430 SPEC_440 SPEC_450 SPEC_460 SPEC_470 SPEC_480 SPEC_490 SPEC_500 SPEC_510 SPEC_520 SPEC_530 SPEC_540 SPEC_550 SPEC_560 SPEC_570 SPEC_580 SPEC_590 SPEC_600 SPEC_610 SPEC_620 SPEC_630 SPEC_640 SPEC_650 SPEC_660 SPEC_670 SPEC_680 SPEC_690 SPEC_700 SPEC_710 SPEC_720 SPEC_730 
END_DATA_FORMAT

NUMBER_OF_SETS 1
BEGIN_DATA
38.55866 38.57398 38.59099 38.60980 38.63055 39.13471 39.26882 39.24994 39.08434 38.50382 37.96559 37.50179 36.97156 36.47483 36.00159 35.50225 35.10910 34.73528 34.26301 33.94036 33.43726 32.93301 32.42593 31.96683 31.57665 31.17503 30.79931 30.40411 30.07568 29.64935 29.19381 28.74893 28.40529 27.96561 27.56378 27.26866 
END_DATA
